Dominus_Dark_Funeral/scalable/apps/preferences-system.svg

<svg xmlns="http://www.w3.org/2000/svg" xmlns:xlink="http://www.w3.org/1999/xlink" viewBox="0 0 48 48"><defs><linearGradient id="c"><stop offset="0" stop-color="#b7c8b7"/><stop offset="1" stop-color="#677867"/></linearGradient><linearGradient id="i" x1="23.23" x2="28.25" y1="21.85" y2="5.53" gradientTransform="translate(-.14 .66)" gradientUnits="userSpaceOnUse"><stop offset="0"/><stop stop-opacity="0" offset="1"/></linearGradient><linearGradient id="h" x1="23.23" x2="16.93" y1="21.85" y2="38.1" gradientUnits="userSpaceOnUse"><stop offset="0"/><stop stop-opacity="0" offset="1"/></linearGradient><linearGradient id="j" x1="28.58" x2="16.74" y1="21.52" y2="21.77" gradientUnits="userSpaceOnUse"><stop offset="0"/><stop stop-opacity="0" offset="1"/></linearGradient><filter id="f" x="-.01" y="-.01" width="1.02" height="1.03" color-interpolation-filters="sRGB"><feGaussianBlur stdDeviation=".18"/></filter><linearGradient id="e" x1="4.38" x2="43.38" y1="5.59" y2="46.53" gradientUnits="userSpaceOnUse"><stop offset="0"/><stop stop-opacity="0" offset="1"/></linearGradient><linearGradient id="g" x1="29.45" x2="28.82" y1="6.72" y2="9.11" gradientUnits="userSpaceOnUse" xlink:href="#a"/><linearGradient id="a"><stop offset="0"/><stop stop-opacity="0" offset="1"/></linearGradient><linearGradient id="m" x1="39.58" x2="36.71" y1="3.72" y2="18.37" gradientUnits="userSpaceOnUse" xlink:href="#a" gradientTransform="translate(20)"/><linearGradient id="k" x1="24.41" x2="22.97" y1="25.64" y2="24.97" gradientUnits="userSpaceOnUse" xlink:href="#b"/><linearGradient id="b"><stop offset="0" stop-color="#feffff"/><stop offset="1" stop-color="#feffff" stop-opacity="0"/></linearGradient><linearGradient id="l" x1="26.85" x2="24.55" y1="20.66" y2="20.13" gradientUnits="userSpaceOnUse" xlink:href="#b"/><radialGradient xlink:href="#b" id="n" cx="27.57" cy="18.76" fx="27.57" fy="18.76" r="6.96" gradientTransform="matrix(1.32866 .55481 -.0648 .15519 14.85 -7.96)" gradientUnits="userSpaceOnUse"/><linearGradient xlink:href="#a" id="o" gradientUnits="userSpaceOnUse" gradientTransform="matrix(-1 0 0 1 47.96 -.05)" x1="29.45" y1="6.72" x2="28.82" y2="9.11"/><linearGradient xlink:href="#a" id="p" gradientUnits="userSpaceOnUse" gradientTransform="matrix(-1 0 0 1 47.96 -.05)" x1="28.58" y1="21.52" x2="16.74" y2="21.77"/><linearGradient xlink:href="#b" id="q" gradientUnits="userSpaceOnUse" gradientTransform="matrix(-1 0 0 1 47.96 -.05)" x1="24.41" y1="25.64" x2="22.97" y2="24.97"/><linearGradient xlink:href="#b" id="r" gradientUnits="userSpaceOnUse" gradientTransform="matrix(-1 0 0 1 47.96 -.05)" x1="26.85" y1="20.66" x2="24.55" y2="20.13"/><radialGradient xlink:href="#b" id="t" cx="27.57" cy="18.76" fx="27.57" fy="18.76" r="6.96" gradientTransform="matrix(1.32866 .55481 -.0648 .15519 14.85 -7.96)" gradientUnits="userSpaceOnUse"/><linearGradient xlink:href="#a" id="s" gradientUnits="userSpaceOnUse" gradientTransform="translate(20)" x1="39.58" y1="3.72" x2="36.71" y2="18.37"/><linearGradient xlink:href="#c" id="d" x1="23.52" y1="47.99" x2="23.71" y2=".49" gradientUnits="userSpaceOnUse"/></defs><path d="M23.71.5C17.88.5 13.2 1.6 9.78 3.82 5.68 6.48 3.5 10.73 3.5 16.1c0 7.22 5.8 16.88 7.58 19.67a54.47 54.47 0 0 0 6.25 8.16c2.54 2.64 4.57 3.87 6.37 3.87 1.8 0 3.83-1.23 6.37-3.87 2-2.08 4.22-4.98 6.25-8.16 1.78-2.79 7.59-12.45 7.59-19.67 0-5.37-2.17-9.62-6.27-12.27C34.23 1.6 29.55.49 23.7.49z" fill="url(#d)"/><path d="M26.65 46.83c1.04-.64 2.17-1.6 3.43-2.9 2-2.08 4.22-4.98 6.25-8.16.89-1.4 2.79-4.5 4.46-8.17a43.2 43.2 0 0 0 2.19-5.77c.34-1.17.4-2.27.56-3.4l-.24-.25-5.61-5.6L32 9.21l-3.75-3.7-.96 4.46-.28 2.07-6.22-6.1-.76 1.49L16 8.84l-5.08 2.93-4.9 4.04-1.36 2.32 15.06 15.23-2.89 3.48z" opacity=".2" fill="url(#e)"/><path d="M20.04 7.44c.33-.02.65.2.73.57.5 2.32 1.83 8.3 3.22 13.36 1.38-5.05 2.7-11 3.2-13.31a.72.72 0 1 1 1.4.3l-.1.55c.23.07.76.25 1.47.51 3.52 1.31 11.64 4.9 13.2 10.65-1.98-2.6-8.45-6.8-13.78-7.77l.27-1.32-1.5-.54c-.74 3.35-2.09 9.2-3.4 13.67a70.99 70.99 0 0 0 6.2 14.41l-1.32.76S26.47 34 23.99 26.54a71.74 71.74 0 0 1-5.66 12.8l-1.31-.77s3.65-6.06 6.18-14.4l.02-.07a229.42 229.42 0 0 1-3.4-13.7l-1.52.52.27 1.33c-5.32.97-11.8 5.17-13.77 7.77 1.56-5.74 9.68-9.34 13.2-10.65a31.6 31.6 0 0 1 1.48-.51l-.12-.55a.73.73 0 0 1 .68-.88z" opacity=".2" filter="url(#f)"/><path d="M3.64 14.88c-.03.42-.13.79-.13 1.22 0 7.22 5.8 16.88 7.58 19.67a54.47 54.47 0 0 0 6.25 8.16c2.54 2.64 4.57 3.87 6.37 3.87 1.8 0 3.83-1.23 6.37-3.87 2-2.08 4.22-4.98 6.25-8.16 1.78-2.79 7.59-12.45 7.59-19.67 0-.43-.1-.8-.13-1.22a21.6 21.6 0 0 1-.81 4.95 43.18 43.18 0 0 1-2.19 5.77 69.59 69.59 0 0 1-4.46 8.17 54.46 54.46 0 0 1-6.25 8.16 17.98 17.98 0 0 1-3.46 2.93c-1.05.64-2 .94-2.9.94-.91 0-1.87-.3-2.92-.94-1.05-.64-2.19-1.61-3.46-2.93-2-2.08-4.21-4.98-6.25-8.16a69.6 69.6 0 0 1-4.46-8.17 43.2 43.2 0 0 1-2.19-5.77 21.6 21.6 0 0 1-.8-4.95z" opacity=".2"/><path d="M28.14 8.42l1.52.54c.07-.34 1.3.1 1.35-.2.05-.25-1.06-1.25-1.04-1.37-.72-.27-1.25-.44-1.49-.52-.05.22-.93.3-1 .57-.05.26.72.69.66.98z" fill="#ccc"/><path d="M28.14 8.42l1.52.54c.07-.34 1.3.1 1.35-.2.05-.25-1.06-1.25-1.04-1.37-.72-.27-1.25-.44-1.49-.52-.05.22-.93.3-1 .57-.05.26.72.69.66.98z" opacity=".8" fill="url(#g)"/><path d="M28.14 8.42a370.09 370.09 0 0 0 .46-2.1.73.73 0 1 0-1.43-.31c-.6 2.77-2.4 10.85-4.05 16.27-2.58 8.43-6.29 14.56-6.29 14.56l1.33.77s3.7-6.13 6.28-14.56c1.4-4.58 2.9-11.05 3.7-14.63z" fill="#b27214"/><path d="M23.23 21.85c-.05.15-.07.29-.11.44a71.77 71.77 0 0 1-6.29 14.55l1.33.77s3.52-6.03 6.06-13.75c-.15-.46-.56-.38-.7-.86-.11-.36-.18-.77-.3-1.15z" opacity=".45" fill="url(#h)"/><path d="M24.6 22.5a243.01 243.01 0 0 0 3.74-14.97l.12-.56a.73.73 0 0 0-.35-.78.73.73 0 0 0-1.08.47c-.47 2.19-1.84 8.04-3.14 12.9.31 1.17.4 1.9.72 2.95z" opacity=".45" fill="url(#i)"/><path d="M28.14 8.42a370.09 370.09 0 0 0 .46-2.1.73.73 0 1 0-1.43-.31c-.6 2.77-2.4 10.85-4.05 16.27-2.58 8.43-6.29 14.56-6.29 14.56l1.33.77s3.7-6.13 6.28-14.56c1.4-4.58 2.9-11.05 3.7-14.63z" opacity=".5" fill="url(#j)"/><path d="M29.39 10.3c5.38.99 11.91 5.25 13.9 7.88-1.56-5.8-9.77-9.46-13.32-10.79a284.02 284.02 0 0 1-.59 2.91z" fill="#e6e6e6"/><path d="M28.14 8.42a370.09 370.09 0 0 0 .46-2.1.73.73 0 1 0-1.43-.31c-.6 2.77-2.4 10.85-4.05 16.27-2.58 8.43-6.29 14.56-6.29 14.56l1.33.77s3.7-6.13 6.28-14.56c1.4-4.58 2.9-11.05 3.7-14.63z" opacity=".5" fill="url(#k)"/><path d="M28.14 8.42a370.09 370.09 0 0 0 .46-2.1.73.73 0 1 0-1.43-.31c-.6 2.77-2.4 10.85-4.05 16.27-2.58 8.43-6.29 14.56-6.29 14.56l1.33.77s3.7-6.13 6.28-14.56c1.4-4.58 2.9-11.05 3.7-14.63z" opacity=".5" fill="url(#l)"/><path d="M49.38 10.3c5.39.99 11.92 5.25 13.92 7.88-1.57-5.8-9.78-9.46-13.33-10.79a284.02 284.02 0 0 1-.59 2.91z" opacity=".35" fill="url(#m)" transform="translate(-20)"/><path d="M49.39 10.3c5.38.99 11.91 5.25 13.9 7.88-1.56-5.8-9.77-9.46-13.32-10.79a284.02 284.02 0 0 1-.58 2.91z" opacity=".4" fill="url(#n)" transform="translate(-20)"/><path d="M19.82 8.37l-1.52.54c-.07-.34-1.3.1-1.35-.2-.05-.25 1.06-1.25 1.04-1.37.72-.27 1.24-.44 1.49-.52.05.21.93.3 1 .57.05.26-.73.69-.66.98z" fill="#ccc"/><path d="M19.82 8.37l-1.52.54c-.07-.34-1.3.1-1.35-.2-.05-.25 1.06-1.25 1.04-1.37.72-.27 1.24-.44 1.49-.52.05.21.93.3 1 .57.05.26-.73.69-.66.98z" opacity=".8" fill="url(#o)"/><path d="M19.82 8.37a370.09 370.09 0 0 1-.46-2.1.73.73 0 1 1 1.43-.32c.6 2.78 2.4 10.86 4.05 16.28 2.58 8.43 6.28 14.56 6.28 14.56l-1.32.77S26.1 31.43 23.52 23c-1.4-4.58-2.9-11.05-3.7-14.63z" fill="#b27214"/><path d="M18.57 10.25c-5.38.99-11.91 5.25-13.9 7.88 1.56-5.8 9.77-9.46 13.32-10.79a284.02 284.02 0 0 0 .58 2.91z" fill="#e6e6e6"/><path d="M19.82 8.37a370.09 370.09 0 0 1-.46-2.1.73.73 0 1 1 1.43-.32c.6 2.78 2.4 10.86 4.05 16.28 2.58 8.43 6.28 14.56 6.28 14.56l-1.32.77S26.1 31.43 23.52 23c-1.4-4.58-2.9-11.05-3.7-14.63z" opacity=".5" fill="url(#p)"/><path d="M19.82 8.37a370.09 370.09 0 0 1-.46-2.1.73.73 0 1 1 1.43-.32c.6 2.78 2.4 10.86 4.05 16.28 2.58 8.43 6.28 14.56 6.28 14.56l-1.32.77S26.1 31.43 23.52 23c-1.4-4.58-2.9-11.05-3.7-14.63z" opacity=".5" fill="url(#q)"/><path d="M19.82 8.37a370.09 370.09 0 0 1-.46-2.1.73.73 0 1 1 1.43-.32c.6 2.78 2.4 10.86 4.05 16.28 2.58 8.43 6.28 14.56 6.28 14.56l-1.32.77S26.1 31.43 23.52 23c-1.4-4.58-2.9-11.05-3.7-14.63z" opacity=".5" fill="url(#r)"/><g><path d="M49.38 10.3c5.39.99 11.92 5.25 13.92 7.88-1.57-5.8-9.78-9.46-13.33-10.79a284.02 284.02 0 0 1-.59 2.91z" opacity=".35" fill="url(#s)" transform="matrix(-1 0 0 1 67.96 -.05)"/><path d="M49.39 10.3c5.38.99 11.91 5.25 13.9 7.88-1.56-5.8-9.77-9.46-13.32-10.79a284.02 284.02 0 0 1-.58 2.91z" opacity=".4" fill="url(#t)" transform="matrix(-1 0 0 1 67.96 -.05)"/></g></svg>

<?xml version="1.0" encoding="UTF-8" standalone="no"?>
<svg
   xmlns:dc="http://purl.org/dc/elements/1.1/"
   xmlns:cc="http://creativecommons.org/ns#"
   xmlns:rdf="http://www.w3.org/1999/02/22-rdf-syntax-ns#"
   xmlns:svg="http://www.w3.org/2000/svg"
   xmlns="http://www.w3.org/2000/svg"
   xmlns:xlink="http://www.w3.org/1999/xlink"
   xmlns:sodipodi="http://sodipodi.sourceforge.net/DTD/sodipodi-0.dtd"
   xmlns:inkscape="http://www.inkscape.org/namespaces/inkscape"
   viewBox="0 0 48 48"
   version="1.1"
   id="svg104"
   sodipodi:docname="preferences-system.svg"
   inkscape:version="0.92.4 (5da689c313, 2019-01-14)">
  <metadata
     id="metadata108">
    <rdf:RDF>
      <cc:Work
         rdf:about="">
        <dc:format>image/svg+xml</dc:format>
        <dc:type
           rdf:resource="http://purl.org/dc/dcmitype/StillImage" />
        <dc:title></dc:title>
      </cc:Work>
    </rdf:RDF>
  </metadata>
  <sodipodi:namedview
     pagecolor="#ffffff"
     bordercolor="#666666"
     borderopacity="1"
     objecttolerance="10"
     gridtolerance="10"
     guidetolerance="10"
     inkscape:pageopacity="0"
     inkscape:pageshadow="2"
     inkscape:window-width="1112"
     inkscape:window-height="480"
     id="namedview106"
     showgrid="false"
     inkscape:zoom="4.9166667"
     inkscape:cx="2.1355932"
     inkscape:cy="24"
     inkscape:window-x="0"
     inkscape:window-y="25"
     inkscape:window-maximized="0"
     inkscape:current-layer="svg104" />
  <defs
     id="defs52">
    <linearGradient
       id="c">
      <stop
         offset="0"
         stop-color="#b7c8b7"
         id="stop2" />
      <stop
         offset="1"
         stop-color="#677867"
         id="stop4" />
    </linearGradient>
    <linearGradient
       id="i"
       x1="23.23"
       x2="28.25"
       y1="21.85"
       y2="5.53"
       gradientTransform="translate(-0.14,0.66)"
       gradientUnits="userSpaceOnUse">
      <stop
         offset="0"
         id="stop7" />
      <stop
         stop-opacity="0"
         offset="1"
         id="stop9" />
    </linearGradient>
    <linearGradient
       id="h"
       x1="23.23"
       x2="16.93"
       y1="21.85"
       y2="38.1"
       gradientUnits="userSpaceOnUse">
      <stop
         offset="0"
         id="stop12" />
      <stop
         stop-opacity="0"
         offset="1"
         id="stop14" />
    </linearGradient>
    <linearGradient
       id="j"
       x1="28.58"
       x2="16.74"
       y1="21.52"
       y2="21.77"
       gradientUnits="userSpaceOnUse">
      <stop
         offset="0"
         id="stop17" />
      <stop
         stop-opacity="0"
         offset="1"
         id="stop19" />
    </linearGradient>
    <filter
       id="f"
       x="-.01"
       y="-.01"
       width="1.02"
       height="1.03"
       color-interpolation-filters="sRGB">
      <feGaussianBlur
         stdDeviation=".18"
         id="feGaussianBlur22" />
    </filter>
    <linearGradient
       id="e"
       x1="4.38"
       x2="43.38"
       y1="5.59"
       y2="46.53"
       gradientUnits="userSpaceOnUse">
      <stop
         offset="0"
         id="stop25" />
      <stop
         stop-opacity="0"
         offset="1"
         id="stop27" />
    </linearGradient>
    <linearGradient
       id="g"
       x1="29.45"
       x2="28.82"
       y1="6.72"
       y2="9.11"
       gradientUnits="userSpaceOnUse"
       xlink:href="#a" />
    <linearGradient
       id="a">
      <stop
         offset="0"
         id="stop31" />
      <stop
         stop-opacity="0"
         offset="1"
         id="stop33" />
    </linearGradient>
    <linearGradient
       id="m"
       x1="39.58"
       x2="36.71"
       y1="3.72"
       y2="18.37"
       gradientUnits="userSpaceOnUse"
       xlink:href="#a" />
    <linearGradient
       id="k"
       x1="24.41"
       x2="22.97"
       y1="25.64"
       y2="24.97"
       gradientUnits="userSpaceOnUse"
       xlink:href="#b" />
    <linearGradient
       id="b">
      <stop
         offset="0"
         stop-color="#feffff"
         id="stop38" />
      <stop
         offset="1"
         stop-color="#feffff"
         stop-opacity="0"
         id="stop40" />
    </linearGradient>
    <linearGradient
       id="l"
       x1="26.85"
       x2="24.55"
       y1="20.66"
       y2="20.13"
       gradientUnits="userSpaceOnUse"
       xlink:href="#b" />
    <radialGradient
       xlink:href="#b"
       id="n"
       cx="27.57"
       cy="18.76"
       fx="27.57"
       fy="18.76"
       r="6.96"
       gradientTransform="matrix(1.32866,0.55481,-0.0648,0.15519,-5.15,-7.96)"
       gradientUnits="userSpaceOnUse" />
    <linearGradient
       xlink:href="#a"
       id="o"
       gradientUnits="userSpaceOnUse"
       gradientTransform="matrix(-1,0,0,1,47.96,-0.05)"
       x1="29.45"
       y1="6.72"
       x2="28.82"
       y2="9.11" />
    <linearGradient
       xlink:href="#a"
       id="p"
       gradientUnits="userSpaceOnUse"
       gradientTransform="matrix(-1,0,0,1,47.96,-0.05)"
       x1="28.58"
       y1="21.52"
       x2="16.74"
       y2="21.77" />
    <linearGradient
       xlink:href="#b"
       id="q"
       gradientUnits="userSpaceOnUse"
       gradientTransform="matrix(-1,0,0,1,47.96,-0.05)"
       x1="24.41"
       y1="25.64"
       x2="22.97"
       y2="24.97" />
    <linearGradient
       xlink:href="#b"
       id="r"
       gradientUnits="userSpaceOnUse"
       gradientTransform="matrix(-1,0,0,1,47.96,-0.05)"
       x1="26.85"
       y1="20.66"
       x2="24.55"
       y2="20.13" />
    <radialGradient
       xlink:href="#b"
       id="t"
       cx="27.57"
       cy="18.76"
       fx="27.57"
       fy="18.76"
       r="6.96"
       gradientTransform="matrix(1.32866,0.55481,-0.0648,0.15519,14.85,-7.96)"
       gradientUnits="userSpaceOnUse" />
    <linearGradient
       xlink:href="#a"
       id="s"
       gradientUnits="userSpaceOnUse"
       gradientTransform="translate(20)"
       x1="39.58"
       y1="3.72"
       x2="36.71"
       y2="18.37" />
    <linearGradient
       xlink:href="#c"
       id="d"
       x1="23.52"
       y1="47.99"
       x2="23.71"
       y2=".49"
       gradientUnits="userSpaceOnUse" />
  </defs>
  <path
     d="M 23.71,0.5 C 17.88,0.5 13.2,1.6 9.78,3.82 5.68,6.48 3.5,10.73 3.5,16.1 c 0,7.22 5.8,16.88 7.58,19.67 a 54.47,54.47 0 0 0 6.25,8.16 c 2.54,2.64 4.57,3.87 6.37,3.87 1.8,0 3.83,-1.23 6.37,-3.87 2,-2.08 4.22,-4.98 6.25,-8.16 C 38.1,32.98 43.91,23.32 43.91,16.1 43.91,10.73 41.74,6.48 37.64,3.83 34.23,1.6 29.55,0.49 23.7,0.49 Z"
     id="path54"
     style="fill:url(#d)"
     inkscape:connector-curvature="0" />
  <path
     d="m 26.65,46.83 c 1.04,-0.64 2.17,-1.6 3.43,-2.9 2,-2.08 4.22,-4.98 6.25,-8.16 0.89,-1.4 2.79,-4.5 4.46,-8.17 a 43.2,43.2 0 0 0 2.19,-5.77 c 0.34,-1.17 0.4,-2.27 0.56,-3.4 L 43.3,18.18 37.69,12.58 32,9.21 28.25,5.51 27.29,9.97 27.01,12.04 20.79,5.94 20.03,7.43 16,8.84 l -5.08,2.93 -4.9,4.04 -1.36,2.32 15.06,15.23 -2.89,3.48 z"
     id="path56"
     style="opacity:0.2;fill:url(#e)"
     inkscape:connector-curvature="0" />
  <path
     d="m 20.04,7.44 c 0.33,-0.02 0.65,0.2 0.73,0.57 0.5,2.32 1.83,8.3 3.22,13.36 1.38,-5.05 2.7,-11 3.2,-13.31 a 0.72,0.72 0 1 1 1.4,0.3 l -0.1,0.55 c 0.23,0.07 0.76,0.25 1.47,0.51 3.52,1.31 11.64,4.9 13.2,10.65 -1.98,-2.6 -8.45,-6.8 -13.78,-7.77 l 0.27,-1.32 -1.5,-0.54 c -0.74,3.35 -2.09,9.2 -3.4,13.67 a 70.99,70.99 0 0 0 6.2,14.41 l -1.32,0.76 c 0,0 -3.16,-5.28 -5.64,-12.74 a 71.74,71.74 0 0 1 -5.66,12.8 l -1.31,-0.77 c 0,0 3.65,-6.06 6.18,-14.4 l 0.02,-0.07 a 229.42,229.42 0 0 1 -3.4,-13.7 l -1.52,0.52 0.27,1.33 C 13.25,13.22 6.77,17.42 4.8,20.02 6.36,14.28 14.48,10.68 18,9.37 A 31.6,31.6 0 0 1 19.48,8.86 L 19.36,8.31 a 0.73,0.73 0 0 1 0.68,-0.88 z"
     id="path58"
     inkscape:connector-curvature="0"
     style="opacity:0.2;filter:url(#f)" />
  <path
     d="m 3.64,14.88 c -0.03,0.42 -0.13,0.79 -0.13,1.22 0,7.22 5.8,16.88 7.58,19.67 a 54.47,54.47 0 0 0 6.25,8.16 c 2.54,2.64 4.57,3.87 6.37,3.87 1.8,0 3.83,-1.23 6.37,-3.87 2,-2.08 4.22,-4.98 6.25,-8.16 1.78,-2.79 7.59,-12.45 7.59,-19.67 0,-0.43 -0.1,-0.8 -0.13,-1.22 a 21.6,21.6 0 0 1 -0.81,4.95 43.18,43.18 0 0 1 -2.19,5.77 69.59,69.59 0 0 1 -4.46,8.17 54.46,54.46 0 0 1 -6.25,8.16 17.98,17.98 0 0 1 -3.46,2.93 c -1.05,0.64 -2,0.94 -2.9,0.94 -0.91,0 -1.87,-0.3 -2.92,-0.94 -1.05,-0.64 -2.19,-1.61 -3.46,-2.93 -2,-2.08 -4.21,-4.98 -6.25,-8.16 A 69.6,69.6 0 0 1 6.63,25.6 43.2,43.2 0 0 1 4.44,19.83 21.6,21.6 0 0 1 3.64,14.88 Z"
     id="path60"
     inkscape:connector-curvature="0"
     style="opacity:0.2" />
  <path
     d="m 28.14,8.42 1.52,0.54 c 0.07,-0.34 1.3,0.1 1.35,-0.2 C 31.06,8.51 29.95,7.51 29.97,7.39 29.25,7.12 28.72,6.95 28.48,6.87 c -0.05,0.22 -0.93,0.3 -1,0.57 -0.05,0.26 0.72,0.69 0.66,0.98 z"
     id="path62"
     inkscape:connector-curvature="0"
     style="fill:#cccccc" />
  <path
     d="m 28.14,8.42 1.52,0.54 c 0.07,-0.34 1.3,0.1 1.35,-0.2 C 31.06,8.51 29.95,7.51 29.97,7.39 29.25,7.12 28.72,6.95 28.48,6.87 c -0.05,0.22 -0.93,0.3 -1,0.57 -0.05,0.26 0.72,0.69 0.66,0.98 z"
     id="path64"
     style="opacity:0.8;fill:url(#g)"
     inkscape:connector-curvature="0" />
  <path
     d="M 28.14,8.42 A 370.09,370.09 0 0 0 28.6,6.32 0.73160782,0.73160782 0 1 0 27.17,6.01 c -0.6,2.77 -2.4,10.85 -4.05,16.27 -2.58,8.43 -6.29,14.56 -6.29,14.56 l 1.33,0.77 c 0,0 3.7,-6.13 6.28,-14.56 1.4,-4.58 2.9,-11.05 3.7,-14.63 z"
     id="path66"
     inkscape:connector-curvature="0"
     style="fill:#b27214" />
  <path
     d="m 23.23,21.85 c -0.05,0.15 -0.07,0.29 -0.11,0.44 a 71.77,71.77 0 0 1 -6.29,14.55 l 1.33,0.77 c 0,0 3.52,-6.03 6.06,-13.75 -0.15,-0.46 -0.56,-0.38 -0.7,-0.86 -0.11,-0.36 -0.18,-0.77 -0.3,-1.15 z"
     id="path68"
     style="opacity:0.45;fill:url(#h)"
     inkscape:connector-curvature="0" />
  <path
     d="M 24.6,22.5 A 243.01,243.01 0 0 0 28.34,7.53 L 28.46,6.97 A 0.73,0.73 0 0 0 28.11,6.19 0.73,0.73 0 0 0 27.03,6.66 c -0.47,2.19 -1.84,8.04 -3.14,12.9 0.31,1.17 0.4,1.9 0.72,2.95 z"
     id="path70"
     style="opacity:0.45;fill:url(#i)"
     inkscape:connector-curvature="0" />
  <path
     d="M 28.14,8.42 A 370.09,370.09 0 0 0 28.6,6.32 0.73160782,0.73160782 0 1 0 27.17,6.01 c -0.6,2.77 -2.4,10.85 -4.05,16.27 -2.58,8.43 -6.29,14.56 -6.29,14.56 l 1.33,0.77 c 0,0 3.7,-6.13 6.28,-14.56 1.4,-4.58 2.9,-11.05 3.7,-14.63 z"
     id="path72"
     style="opacity:0.5;fill:url(#j)"
     inkscape:connector-curvature="0" />
  <path
     d="m 29.39,10.3 c 5.38,0.99 11.91,5.25 13.9,7.88 C 41.73,12.38 33.52,8.72 29.97,7.39 a 284.02,284.02 0 0 1 -0.59,2.91 z"
     id="path74"
     inkscape:connector-curvature="0"
     style="fill:#e6e6e6" />
  <path
     d="M 28.14,8.42 A 370.09,370.09 0 0 0 28.6,6.32 0.73160782,0.73160782 0 1 0 27.17,6.01 c -0.6,2.77 -2.4,10.85 -4.05,16.27 -2.58,8.43 -6.29,14.56 -6.29,14.56 l 1.33,0.77 c 0,0 3.7,-6.13 6.28,-14.56 1.4,-4.58 2.9,-11.05 3.7,-14.63 z"
     id="path76"
     style="opacity:0.5;fill:url(#k)"
     inkscape:connector-curvature="0" />
  <path
     d="M 28.14,8.42 A 370.09,370.09 0 0 0 28.6,6.32 0.73160782,0.73160782 0 1 0 27.17,6.01 c -0.6,2.77 -2.4,10.85 -4.05,16.27 -2.58,8.43 -6.29,14.56 -6.29,14.56 l 1.33,0.77 c 0,0 3.7,-6.13 6.28,-14.56 1.4,-4.58 2.9,-11.05 3.7,-14.63 z"
     id="path78"
     style="opacity:0.5;fill:url(#l)"
     inkscape:connector-curvature="0" />
  <path
     d="M 29.38,10.3 C 34.77,11.29 41.3,15.55 43.3,18.18 41.73,12.38 33.52,8.72 29.97,7.39 a 284.02,284.02 0 0 1 -0.59,2.91 z"
     id="path80"
     style="opacity:0.35;fill:url(#m)"
     inkscape:connector-curvature="0" />
  <path
     d="m 29.39,10.3 c 5.38,0.99 11.91,5.25 13.9,7.88 C 41.73,12.38 33.52,8.72 29.97,7.39 a 284.02,284.02 0 0 1 -0.58,2.91 z"
     id="path82"
     style="opacity:0.4;fill:url(#n)"
     inkscape:connector-curvature="0" />
  <path
     d="M 19.82,8.37 18.3,8.91 C 18.23,8.57 17,9.01 16.95,8.71 16.9,8.46 18.01,7.46 17.99,7.34 18.71,7.07 19.23,6.9 19.48,6.82 c 0.05,0.21 0.93,0.3 1,0.57 0.05,0.26 -0.73,0.69 -0.66,0.98 z"
     id="path84"
     inkscape:connector-curvature="0"
     style="fill:#cccccc" />
  <path
     d="M 19.82,8.37 18.3,8.91 C 18.23,8.57 17,9.01 16.95,8.71 16.9,8.46 18.01,7.46 17.99,7.34 18.71,7.07 19.23,6.9 19.48,6.82 c 0.05,0.21 0.93,0.3 1,0.57 0.05,0.26 -0.73,0.69 -0.66,0.98 z"
     id="path86"
     style="opacity:0.8;fill:url(#o)"
     inkscape:connector-curvature="0" />
  <path
     d="m 19.82,8.37 a 370.09,370.09 0 0 1 -0.46,-2.1 0.73268342,0.73268342 0 1 1 1.43,-0.32 c 0.6,2.78 2.4,10.86 4.05,16.28 2.58,8.43 6.28,14.56 6.28,14.56 l -1.32,0.77 c 0,0 -3.7,-6.13 -6.28,-14.56 -1.4,-4.58 -2.9,-11.05 -3.7,-14.63 z"
     id="path88"
     inkscape:connector-curvature="0"
     style="fill:#b27214" />
  <path
     d="M 18.57,10.25 C 13.19,11.24 6.66,15.5 4.67,18.13 6.23,12.33 14.44,8.67 17.99,7.34 a 284.02,284.02 0 0 0 0.58,2.91 z"
     id="path90"
     inkscape:connector-curvature="0"
     style="fill:#e6e6e6" />
  <path
     d="m 19.82,8.37 a 370.09,370.09 0 0 1 -0.46,-2.1 0.73268342,0.73268342 0 1 1 1.43,-0.32 c 0.6,2.78 2.4,10.86 4.05,16.28 2.58,8.43 6.28,14.56 6.28,14.56 l -1.32,0.77 c 0,0 -3.7,-6.13 -6.28,-14.56 -1.4,-4.58 -2.9,-11.05 -3.7,-14.63 z"
     id="path92"
     style="opacity:0.5;fill:url(#p)"
     inkscape:connector-curvature="0" />
  <path
     d="m 19.82,8.37 a 370.09,370.09 0 0 1 -0.46,-2.1 0.73268342,0.73268342 0 1 1 1.43,-0.32 c 0.6,2.78 2.4,10.86 4.05,16.28 2.58,8.43 6.28,14.56 6.28,14.56 l -1.32,0.77 c 0,0 -3.7,-6.13 -6.28,-14.56 -1.4,-4.58 -2.9,-11.05 -3.7,-14.63 z"
     id="path94"
     style="opacity:0.5;fill:url(#q)"
     inkscape:connector-curvature="0" />
  <path
     d="m 19.82,8.37 a 370.09,370.09 0 0 1 -0.46,-2.1 0.73268342,0.73268342 0 1 1 1.43,-0.32 c 0.6,2.78 2.4,10.86 4.05,16.28 2.58,8.43 6.28,14.56 6.28,14.56 l -1.32,0.77 c 0,0 -3.7,-6.13 -6.28,-14.56 -1.4,-4.58 -2.9,-11.05 -3.7,-14.63 z"
     id="path96"
     style="opacity:0.5;fill:url(#r)"
     inkscape:connector-curvature="0" />
  <g
     id="g102">
    <path
       d="M 49.38,10.3 C 54.77,11.29 61.3,15.55 63.3,18.18 61.73,12.38 53.52,8.72 49.97,7.39 a 284.02,284.02 0 0 1 -0.59,2.91 z"
       transform="matrix(-1,0,0,1,67.96,-0.05)"
       id="path98"
       style="opacity:0.35;fill:url(#s)"
       inkscape:connector-curvature="0" />
    <path
       d="m 49.39,10.3 c 5.38,0.99 11.91,5.25 13.9,7.88 C 61.73,12.38 53.52,8.72 49.97,7.39 a 284.02,284.02 0 0 1 -0.58,2.91 z"
       transform="matrix(-1,0,0,1,67.96,-0.05)"
       id="path100"
       style="opacity:0.4;fill:url(#t)"
       inkscape:connector-curvature="0" />
  </g>
</svg>
